!!!SOCIAL_FUNCTION:	potlatch songs
!!!PDT:	1939
!!!OTL: No__20_Song_of_the_Women_Guests.krn
!!!LANG: Non-Tone
!!!LING_GROUP: Wakashan
!!!REG: Pacific Northwest
**kern
*staff1
=1-
*clefF4
*k[b-]
*M3/4
2r
4G\
=2
4.B-\
8A\
12G\L
12F\
12A\J
=3
4.G\
8F\
12F\L
12F\
12G\J
=4
4G\
4r
12G\L
12G\
12G\J
=5
4G\
10A\L
10G\
20F\Jk
20r
5G\
=6
2G\
12A\L
12G\
12A\J
=7
4G\
4r
12G\L
12G\
12G\J
=8
4G\
8F\
8r
12F\L
12F\
12G\J
=9
4G\
4A\
4r
==
*-
